!!!OTL: Der heimkehrende Braeutigam Wie bald hab' ich geendet
!!!ARE: Europa, Mitteleuropa, Oesterreich, Burgenland
!!!YOR: 5, S. 144
!!    1956 gedruckt in Eisenstadt
!!!SCT: Q1102H
!!!YEM: Copyright 1995, estate of Helmut Schaffrath.
**kern
*ICvox
*Ivox
*M3/4
*k[f#]
*G:
{4dd
=1
2b
4cc
=2
2dd
4ee
=3
4ee
4dd}
{4dd
=4
2dd
4cc
=5
4ee
4dd
4cc
=6
4cc
4b}
{4dd
=7
2b
4cc
=8
2dd
4ee
=9
4ee
4dd}
{4dd
=10
2dd
4cc
=11
4ee
4dd
4cc
=12
4cc
4b}
==
!!!AGN: Totenwacht - Lied
!! Melodievergleich zu Q0102F, anderes Lied.
!!!ONB: ESAC (Essen Associative Code) Database: BALLADE
!!!AMT: simple triple
!!!AIN: vox
!!!EED: Helmut Schaffrath
!!!EEV: 1.0
*-
